!!!OTL: 220. Khosidl
!!!Genre:	Khosidl
!!!Mode:	Minor
!!!Listening/dance:	dance
!!!:	*B-:
!!!One_Mode:	no
**kern
*thru
*I"P1
*clefG2
*k[b-e-]
!!!Begin-Modulation
*B-:
*M2/4
*>A
=1
!LO:TX:a:i:t=Bb-major
8fL
16gL
16aJJ
8b-L
16ccL
16ddJJ
=2
8ee-L
8dd
8cc
8ffJ
=3
4een
16dd-XLL
16cc
16b-
16aJJ
*>A1
=4
4b-
(8b-L
8qcc/
16aL)
16gJJ
*>A
=1
!LO:TX:a:i:t=Bb-major
8fL
16gL
16aJJ
8b-L
16ccL
16ddJJ
=2
8ee-L
8dd
8cc
8ffJ
=3
4een
16dd-XLL
16cc
16b-
16aJJ
*>A2
=5:|!
4.b-
*>B
8ff
!!!End-Modulation
*g:
=6!|:
!LO:TX:a:i:t=G-minor
!LO:TX:a:t="Segno"
16ffKL
(8qaa/
8gg)
16ffJk
8.ggL
16ffJk
=7
(8qgg/
16ffLL)
16ee-J
8ddJ
8.ccL
16b-Jk
=8
16b-KL
(8qdd/
8cc)
16b-Jk
(16b-LL
16a)
((8qb-/
16a)
16gJJ)
!!!End-Modulation1
*>B1
=9
8gL
8b-
8dd
8ggJ
!!!End-Modulation2
*>B
8ff
!!!End-Modulation
*g:
=6!|:
!LO:TX:a:i:t=G-minor
!LO:TX:a:t="Segno"
16ffKL
(8qaa/
8gg)
16ffJk
8.ggL
16ffJk
=7
(8qgg/
16ffLL)
16ee-J
8ddJ
8.ccL
16b-Jk
=8
16b-KL
(8qdd/
8cc)
16b-Jk
(16b-LL
16a)
((8qb-/
16a)
16gJJ)
!!!End-Modulation1
*>B2
=10:|!
!LO:TX:b:Bi:t=Fine
4g
16r
*>C
!!!Begin-Modulation
*B-:
!LO:TX:a:i:t=Bb-major
16FLL
16B-
16cJJ
=11!|:
[4d
16dLL]
16F
16B-
16cJJ
=12
[4d
16dLL]
16F
16B-
16cJJ
=13
16dLL
16F
16e-
16FJJ
16dLL
16F
16c
16FJJ
!!!Begin-Modulation1
*>C1
=14
[4B-
16B-LL]
16F
16B-
16cJJ
!!!Begin-Modulation2
*>C
!!!Begin-Modulation
*B-:
!LO:TX:a:i:t=Bb-major
16FLL
16B-
16cJJ
=11!|:
[4d
16dLL]
16F
16B-
16cJJ
=12
[4d
16dLL]
16F
16B-
16cJJ
=13
16dLL
16F
16e-
16FJJ
16dLL
16F
16c
16FJJ
!!!Begin-Modulation1
*>C2
=15:|!
!LO:TX:b:Bi:t=Dal Segno al Fine
4.B-
8ff
!!!End-Modulation
==
*-
